X: 2199
T: Şâdeyledi Cân ü Dilimi
C: Dede Efendi
O: Turkey
F: http://compmusic.upf.edu/node/140
N: sultaniyegah--yuruksemai--yuruksemai--sadeyledi_can--dede_efendi
N: makam= sultaniyegah
N: form= yuruksemai
N: usul= yuruksemai = 6/8
M: 6/8
L: 1/16
K: C _B ^c  
Q: 1/4=96
%%MIDI tuningsystem comma53
d4f4 e4d4 c6A2  | d8 d4e4 f8  | f4e4 f4g4 a6z2  | \
w:  Şâd_  |  ey le di  cân_  |  *  ü  di li mi   | 
b3ag2b2 a3gf3e d6z2  | 
w:  rû   | 
e2f2g4 f2e2d4 c2d2e2d2  | c4d8A2Bc d8  | \
w:  rûh_ *  *  i  *  re vâ  |  nım   *  SAZ  | 
c4d8c2d2 _7/8e6^f2  | 
w:  Kur  | 
_7/8e2d4c2 c2B2B2A2 A8  | z4G4 A4B4 G8  | \
w:  ban  *  *  e *  de *  yim   |  râ hı na  nakd_  | 
A3GF2A2 G3FF3E D8  | 
w:   | 
E2F2G4 F2E2D4 C2D2E2D2  | C4D8F2G2 A8  | \
w:  i  *  *  dil_ *  ü  câ  |  nım   *  SAZ  | 
G4A4 A2G2=c2_1/4B2 A6z2  | 
w:  Dir  ten  *  *  ni  *  ten   | 
d3=c_1/4B2e2 d2c2c3_B A6z2  | A3GF2A2 G2F2F3E D8  | \
w:  te  ne  ni  te  ne  ni  te  ne  nen    |  Te  ne  ni  te  ne  ni  te  ne  nen   | 
E2F2G4 F2E2D4 C2D2E2{F}ED  | 
w:  na  *  *  te  *  ne  dir   | 
D4E4 F4G4 A6z2  | G4A4 A2G2=c2_1/4B2 A6z2  | \
w:  ney    |  Dir  ten  *  *  ni  *  ten   | 
d3=c_1/4B2e2 d2c2c3_B A6z2  | 
w:  te  ne  ni  te  ne  ni  te  ne  nen    | 
A3GF2A2 G2F2F3E D8  | A8 B4c4 c2d2e2d2  | \
w:  Te  ne  ni  te  ne  ni  te  ne  nen   |  na  te  ne  dir   | 
d12z4 f8  | f4f2g2 _7/8a4g2f2 e8  | 
w:  ney   Dil   |  sen *  *  de  gö *  züm   | 
z4f4 _7/8a4a2g2 g2f4e2  | e2f2g2_7/8a2 a2g2f2g2 f2e2d2e2  | \
w:  sen de  ne  *  var   |  sen *  *  *  de  *  e *  fen  | 
d4e8z4 f8  | 
w:  dim   *  Dil   | 
f4f2g2 _7/8a4g2f2 e8  | z4f4 _7/8a4a2g2 g2f4e2  | \
w:  sen *  *  de  gö *  züm   |  sen de  ne  *  var   | 
e2f2g2_7/8a2 a2g2f2g2 f2e2d2e2  | 
w:  sen *  *  *  de  *  e *  fen  | 
d4e12 z8  | d16 a8  | g4a4 g4f2e2 d8  | \
w:  dim   |  ah   |  ah   | 
e2f2g4 f2e2d4 c2d2e2d2  | 
w:  dil  *  *  sa *  na  ben  | 
c4d8A2Bc d8  | c4d8c2d2 _7/8e6^f2  | \
w:  de   *  SAZ  |  Kur  | 
_7/8e2d4c2 c2B2B2A2 A8  | z4G4 A4B4 G8  | 
w:  ban  *  *  e *  de *  yim   |  râ hı na  nâkd_  | 
A3GF2A2 G3FF3E D8  | E2F2G4 F2E2D4 C2D2E2D2  | \
w:   |  i  *  *  dil_ *  ü  câ  | 
C4D12 z8  | 
w:  nım    | 
d4f4 e4d4 c6A2  | d8 d4e4 f8  | f4e4 f4g4 a6z2  | \
w:  Şâd_  |  ey le di  cân_  |  *  ü  di li mi   | 
b3ag2b2 a3gf3e d6z2  | 
w:  rû   | 
e2f2g4 f2e2d4 c2d2e2d2  | c4d8A2Bc d8  | \
w:  rûh_ *  *  i  *  re vâ  |  nım   *  SAZ  | 
c4d8c2d2 _7/8e6^f2  | 
w:  Kur  | 
_7/8e2d4c2 c2B2B2A2 A8  | z4G4 A4B4 G8  | \
w:  ban  *  *  e *  de *  yim   |  râ hı na  nakd_  | 
A3GF2A2 G3FF3E D8  | 
w:   | 
E2F2G4 F2E2D4 C2D2E2D2  | C4D8F2G2 A8  | \
w:  i  *  *  dil_ *  ü  câ  |  nım   *  SAZ  | 
G4A4 A2G2=c2_1/4B2 A6z2  | 
w:  Dir  ten  *  *  ni  *  ten   | 
d3=c_1/4B2e2 d2c2c3_B A6z2  | A3GF2A2 G2F2F3E D8  | \
w:  te  ne  ni  te  ne  ni  te  ne  nen    |  Te  ne  ni  te  ne  ni  te  ne  nen   | 
E2F2G4 F2E2D4 C2D2E2{F}ED  | 
w:  na  *  *  te  *  ne  dir   | 
D4E4 F4G4 A6z2  | G4A4 A2G2=c2_1/4B2 A6z2  | \
w:  ney    |  Dir  ten  *  *  ni  *  ten   | 
d3=c_1/4B2e2 d2c2c3_B A6z2  | 
w:  te  ne  ni  te  ne  ni  te  ne  nen    | 
A3GF2A2 G2F2F3E D8  | A8 B4c4 c2d2e2d2  | \
w:  Te  ne  ni  te  ne  ni  te  ne  nen   |  na  te  ne  dir   | 
d12z4 f8  | f4f2g2 _7/8a4g2f2 e8  | 
w:  ney   Dil   |  sen *  *  de  gö *  züm   | 
z4f4 _7/8a4a2g2 g2f4e2  | e2f2g2_7/8a2 a2g2f2g2 f2e2d2e2  | \
w:  sen de  ne  *  var   |  sen *  *  *  de  *  e *  fen  | 
d4e8z4 f8  | 
w:  dim   *  Dil   | 
f4f2g2 _7/8a4g2f2 e8  | z4f4 _7/8a4a2g2 g2f4e2  | \
w:  sen *  *  de  gö *  züm   |  sen de  ne  *  var   | 
e2f2g2_7/8a2 a2g2f2g2 f2e2d2e2  | 
w:  sen *  *  *  de  *  e *  fen  | 
d4e12 z8  | d16 a8  | g4a4 g4f2e2 d8  | \
w:  dim   |  ah   |  ah   | 
e2f2g4 f2e2d4 c2d2e2d2  | 
w:  dil  *  *  sa *  na  ben  | 
c4d8A2Bc d8  | c4d8c2d2 _7/8e6^f2  | \
w:  de   *  SAZ  |  Kur  | 
_7/8e2d4c2 c2B2B2A2 A8  | z4G4 A4B4 G8  | 
w:  ban  *  *  e *  de *  yim   |  râ hı na  nâkd_  | 
A3GF2A2 G3FF3E D8  | E2F2G4 F2E2D4 C2D2E2D2  | \
w:   |  i  *  *  dil_ *  ü  câ  | 
C4D12 z8  | 
w:  nım    | 
|


